src/assets/honey.svg

<svg width="56" height="57" viewBox="0 0 56 57" fill="none" xmlns="http://www.w3.org/2000/svg">
<path d="M17.0453 10.1486H6.45023L1.15274 19.3242L6.45023 28.5001H17.0453L22.3428 19.3242L17.0453 10.1486Z" fill="#F7BE56"/>
<path d="M17.0453 28.5001H6.45023L1.15274 37.6758L6.45023 46.8514H17.0453L22.3428 37.6758L17.0453 28.5001Z" fill="#F7BE56"/>
<path d="M32.8646 19.3242H22.2696L16.9721 28.5001L22.2696 37.6758H32.8646L38.1621 28.5001L32.8646 19.3242Z" fill="#F7BE56"/>
<path d="M33.4376 38.6752H21.6898L15.8125 28.4999L21.6898 18.3246H33.4376L39.315 28.4999L33.4376 38.6752ZM22.8425 36.6761H32.2581L37.0091 28.4999L32.2581 20.3236H22.8425L18.1246 28.4999L22.8425 36.6761Z" fill="#FFDD0F"/>
<path d="M48.7372 10.1485H38.1422L32.8446 19.3242L38.1422 28.5001H48.7372L54.0347 19.3242L48.7372 10.1485Z" fill="#F7BE56"/>
<path d="M48.7372 28.5001H38.1422L32.8446 37.6758L38.1422 46.8514H48.7372L54.0347 37.6758L48.7372 28.5001Z" fill="#F7BE56"/>
<path d="M32.8646 37.6758H22.2696L16.9721 46.8514L22.2696 56.027H32.8646L38.1621 46.8514L32.8646 37.6758Z" fill="#F7BE56"/>
<path d="M32.8646 0.9729H22.2696L16.9721 10.1485L22.2696 19.3242H32.8646L38.1621 10.1485L32.8646 0.9729Z" fill="#F7BE56"/>
<path d="M32.8646 0.972943V0.639679H22.0764L16.5854 10.1486L22.0764 19.6575H33.0579L38.5485 10.1486L33.0579 0.639679H32.8646V0.972943L32.5714 1.13951L37.7755 10.1486L32.6715 18.9912H22.4628L17.3519 10.1486L22.4628 1.30594H32.8646V0.972943L32.5714 1.13951L32.8646 0.972943Z" fill="#F7BE56"/>
<path d="M18.2047 13.4537H7.60308L2.69202 21.9631C4.41791 22.9293 4.58447 25.7214 5.89055 27.2073C6.98331 28.4468 9.09576 28.3468 10.2685 29.093C10.9343 29.1316 11.6017 29.1316 12.2676 29.093C13.5603 29.0063 14.8264 28.7333 16.1123 28.5533C17.9914 25.8412 19.3976 22.7559 21.4432 20.1638C21.5487 20.0396 21.6723 19.9318 21.8096 19.8439L18.2047 13.4537Z" fill="#FCD462"/>
<path d="M13.727 47.0378C14.4049 46.8893 15.0997 46.8332 15.7927 46.8713C16.0581 46.924 16.314 47.0161 16.5525 47.1446C16.7857 46.6247 16.9456 46.0518 17.1788 45.5854C17.9458 44.2762 18.8008 43.0206 19.7376 41.827C20.5039 40.7142 21.0703 39.4214 22.1232 38.6153L18.2049 31.8317H7.60322L2.27234 41.0073L5.88388 47.1577C8.49843 47.2613 11.1167 47.2212 13.727 47.0378Z" fill="#FCD462"/>
<path d="M23.0625 38.0688C25.1015 37.3291 28.0203 37.3558 30.1591 37.4957C31.3853 37.569 32.438 38.0421 33.3976 37.209C34.1239 36.5827 34.5237 35.21 34.9568 34.357C35.7231 32.8444 36.516 30.5721 37.9353 29.5326H37.9819L33.9837 22.6626H23.422L18.1246 31.8318L22.0694 38.6619C22.3665 38.4121 22.7017 38.2118 23.0625 38.0688Z" fill="#FCD462"/>
<path d="M44.6858 28.5532C45.8385 28.4201 47.0447 28.6065 48.1508 28.4866C49.4835 28.3467 49.4835 27.9068 50.1831 26.7806C51.4491 24.7816 52.4887 22.3093 53.8747 20.357L49.8764 13.4535H39.2948L33.9639 22.6292L37.9622 29.5126C39.6747 28.3 42.7334 28.7865 44.6858 28.5532Z" fill="#FCD462"/>
<path d="M46.618 47.3911C48.657 47.4979 49.1903 46.6248 50.3563 45.1589C51.7357 43.4131 53.4282 41.6005 53.4814 39.2551C53.4851 38.9592 53.5605 38.669 53.7013 38.4089L49.8896 31.8319H39.2947L33.9638 41.0076L37.962 47.9043C40.4677 46.185 43.8128 47.2511 46.618 47.3911Z" fill="#FCD462"/>
<path d="M24.6817 56.6801C26.6807 56.6068 29.2795 56.9933 31.2121 56.5734C34.3638 55.907 35.0902 50.4097 37.4424 48.2972C37.6129 48.138 37.7983 47.9951 37.9955 47.8707L33.9973 40.9806H23.4224L18.1249 50.1563L21.9298 56.7465C22.8425 56.7467 23.7622 56.72 24.6817 56.6801Z" fill="#FCD462"/>
<path d="M34.0175 4.27789H23.4224L18.1249 13.4537L22.3428 19.3242H33.2377L37.7755 10.7815L34.0175 4.27789Z" fill="#FCD462"/>
<path d="M55.1874 19.3242L49.3101 9.17564H38.735L33.4043 0H21.6898L16.3923 9.17564H5.87733L0 19.3242L5.29749 28.4999L0 37.6758L5.87733 47.8244H16.3923L21.7232 57H33.4376L38.7685 47.8244H49.3435L55.2208 37.6491L49.8899 28.4734L55.1874 19.3242ZM48.1573 11.1748L52.9152 19.3242L48.1575 27.5005H38.7152L34.0107 19.3443L38.7353 11.1747H48.1573V11.1748ZM36.9893 28.5001L32.2581 36.6764H22.9291L18.2045 28.5001L22.9291 20.3239H32.2581L36.9893 28.5001ZM22.8425 1.97233H32.2581L36.9693 10.1285L32.2581 18.3246H22.9291L18.1647 10.0818L22.8425 1.97233ZM7.03006 11.1748H16.359L21.1168 19.4176L16.4523 27.5272H7.03006L2.30546 19.3242L7.03006 11.1748ZM16.3589 45.8785H7.02993L2.30533 37.6758L7.02993 29.4995H16.4722L21.1367 37.6091L16.3589 45.8785ZM32.2582 55.0277H22.8427L18.1782 46.9181L22.9292 38.6753H32.2582L36.9895 46.8713L32.2582 55.0277ZM48.1573 45.8252H38.7351L34.0105 37.6623L38.7151 29.4994H48.1573L52.9151 37.6756L48.1573 45.8252Z" fill="#FFDD0F"/>
</svg>

<svg width="56" height="57" fill="none" xmlns="http://www.w3.org/2000/svg"><path d="M17.045 10.149H6.45l-5.297 9.175L6.45 28.5h10.595l5.298-9.176-5.298-9.175z" fill="#F7BE56"/><path d="M17.045 28.5H6.45l-5.297 9.176L6.45 46.85h10.595l5.298-9.175-5.298-9.176z" fill="#F7BE56"/><path d="M32.865 19.324H22.27L16.972 28.5l5.298 9.176h10.595l5.297-9.176-5.297-9.176z" fill="#F7BE56"/><path d="M33.438 38.675H21.69L15.812 28.5l5.878-10.175h11.748L39.315 28.5l-5.877 10.175zm-10.596-1.999h9.416L37.01 28.5l-4.75-8.176h-9.416L18.125 28.5l4.718 8.176z" fill="#FFDD0F"/><path d="M48.737 10.149H38.142l-5.297 9.175 5.297 9.176h10.595l5.298-9.176-5.298-9.176zM48.737 28.5H38.142l-5.297 9.176 5.297 9.175h10.595l5.298-9.175-5.298-9.176z" fill="#F7BE56"/><path d="M32.865 37.676H22.27l-5.298 9.175 5.298 9.176h10.595l5.297-9.176-5.297-9.175zM32.865.973H22.27l-5.298 9.176 5.298 9.175h10.595l5.297-9.176L32.865.973z" fill="#F7BE56"/><path d="M32.865.973V.64H22.076l-5.49 9.509 5.49 9.508h10.982l5.49-9.508-5.49-9.51h-.193v.334l-.294.167 5.205 9.009-5.105 8.842H22.464l-5.111-8.842 5.11-8.843h10.403V.973l-.294.167.294-.167z" fill="#F7BE56"/><path d="M18.205 13.454H7.603l-4.911 8.51c1.726.965 1.892 3.757 3.199 5.243 1.092 1.24 3.205 1.14 4.377 1.886a17.27 17.27 0 002 0c1.292-.087 2.558-.36 3.844-.54 1.88-2.712 3.286-5.797 5.331-8.39.106-.123.23-.231.367-.32l-3.605-6.39zM13.727 47.038a7.682 7.682 0 012.066-.167c.265.053.521.145.76.274.233-.52.393-1.093.626-1.56a33.585 33.585 0 012.559-3.758c.766-1.113 1.332-2.406 2.385-3.212l-3.918-6.783H7.603l-5.33 9.175 3.61 6.15c2.615.104 5.234.064 7.844-.12z" fill="#FCD462"/><path d="M23.063 38.069c2.039-.74 4.957-.713 7.096-.573 1.226.073 2.279.546 3.239-.287.726-.626 1.126-1.999 1.559-2.852.766-1.513 1.559-3.785 2.978-4.824h.047l-3.998-6.87H23.422l-5.297 9.169 3.944 6.83c.297-.25.633-.45.994-.593z" fill="#FCD462"/><path d="M44.686 28.553c1.153-.133 2.359.053 3.465-.066 1.332-.14 1.332-.58 2.032-1.706 1.266-2 2.306-4.472 3.692-6.424l-3.999-6.903H39.295l-5.331 9.175 3.998 6.884c1.713-1.213 4.771-.727 6.724-.96zM46.618 47.391c2.039.107 2.572-.766 3.738-2.232 1.38-1.746 3.072-3.559 3.125-5.904.004-.296.08-.586.22-.846l-3.811-6.577H39.295l-5.331 9.176 3.998 6.896c2.506-1.719 5.85-.653 8.656-.513z" fill="#FCD462"/><path d="M24.682 56.68c1.999-.073 4.598.313 6.53-.107 3.152-.666 3.878-6.163 6.23-8.276.17-.159.356-.302.553-.426l-3.998-6.89H23.422l-5.297 9.175 3.805 6.59c.913 0 1.832-.026 2.752-.066zM34.017 4.278H23.422l-5.297 9.176 4.218 5.87h10.895l4.538-8.543-3.759-6.503z" fill="#FCD462"/><path d="M55.187 19.324L49.31 9.176H38.735L33.405 0H21.69l-5.298 9.176H5.877L0 19.324 5.297 28.5 0 37.676l5.877 10.148h10.515L21.723 57h11.715l5.33-9.176h10.575l5.878-10.175-5.331-9.176 5.297-9.149zm-7.03-8.15l4.758 8.15-4.758 8.176h-9.442l-4.704-8.156 4.724-8.17h9.422zM36.99 28.5l-4.73 8.176h-9.33L18.205 28.5l4.724-8.176h9.33l4.73 8.176zM22.843 1.972h9.415l4.711 8.157-4.71 8.196h-9.33l-4.764-8.243 4.678-8.11zM7.03 11.175h9.329l4.758 8.243-4.665 8.11H7.03l-4.725-8.204 4.725-8.15zm9.329 34.704h-9.33l-4.724-8.203 4.725-8.177h9.442l4.665 8.11-4.778 8.27zm15.9 9.149h-9.416l-4.665-8.11 4.751-8.243h9.33l4.73 8.196-4.73 8.157zm15.898-9.203h-9.422l-4.724-8.163 4.704-8.163h9.442l4.758 8.177-4.758 8.15z" fill="#FFDD0F"/></svg>
